icons/v8.svg

<svg xmlns="http://www.w3.org/2000/svg" viewBox="0 0 256 226.9">
  <defs>
    <radialGradient id="a" cx="3.081" cy="27.424" r="253.938" fx="3.081" fy="27.424" gradientTransform="scale(1.0622 .94145)" gradientUnits="userSpaceOnUse">
      <stop offset="0%" stop-color="#FFF" stop-opacity=".1"/>
      <stop offset="100%" stop-color="#FFF" stop-opacity="0"/>
    </radialGradient>
  </defs>
  <path fill="#9e9e9e" d="m214.5 62.5-6.2 13.1H226l.9-1.5 6.5-11.6h-19.1zm-173.3 0H22.5L30 75.6h17.5z"/>
  <path fill="#424242" d="M256 23.3 232.7 64h-16.3l-26.1 49.5L128 226.9 65.6 113.5 39.6 64H23.3L0 23.3h66.9l10.9 21.6 35.5 64.7 14.5 26.6 14-26.6 34.9-64.7L189 23.2"/>
  <path fill="#fff" fill-opacity=".2" d="M67.7 24.7H.8L0 23.3h66.9zm121.4-1.4-.8 1.5h66.9l.8-1.5z"/>
  <path fill="#263238" fill-opacity=".2" d="m227 74.2-.8 1.5h-15.8l-20 37.9L128 226.9 65.6 113.5 45.7 75.6H29.9l-.8-1.5h16.6l.8 1.5L65.6 112 128 225.5l62.4-113.4 19.2-36.4.8-1.5"/>
  <path fill="#fff" d="M152.7 128c0 13.7-11.1 24.7-24.7 24.7s-24.7-11.1-24.7-24.7 11.1-24.7 24.7-24.7c13.7 0 24.7 11 24.7 24.7zm-2.9-75.6c0 12-9.8 21.8-21.8 21.8s-21.8-9.8-21.8-21.8S116 30.5 128 30.5s21.8 9.8 21.8 21.9z"/>
  <path fill="#4285f4" d="M190.4 113.5c-3.3-14.1-11.2-26.5-22.1-35.3 5.8-8.1 9.2-18 9.2-28.8 0-1.5-.1-3-.2-4.5C175 19.7 153.8 0 128 0c-25.8 0-47 19.7-49.2 44.9-.1 1.5-.2 3-.2 4.6 0 10.7 3.4 20.7 9.2 28.8-10.9 8.8-18.9 21.1-22.1 35.3-1.1 4.6-1.7 9.4-1.7 14.4 0 27.1 16.9 50.3 40.7 59.6 7.2 2.8 15.1 4.4 23.3 4.4 8.2 0 16.1-1.6 23.3-4.4 23.8-9.3 40.7-32.5 40.7-59.6 0-5-.6-9.8-1.6-14.5zM128 32c11.2 0 20.4 9.1 20.4 20.4 0 11.3-9.1 20.4-20.4 20.4-11.2 0-20.4-9.1-20.4-20.4 0-11.3 9.2-20.4 20.4-20.4zm0 119.3c-12.8 0-23.3-10.4-23.3-23.3 0-7.5 3.5-14.1 9-18.4 3.9-3.1 8.9-4.9 14.3-4.9s10.4 1.8 14.3 4.9c5.5 4.3 9 10.9 9 18.4 0 12.9-10.4 23.3-23.3 23.3z"/>
  <path fill="#fff" fill-opacity=".2" d="M177.5 49.5v.7c-.5-27-22.4-48.7-49.5-48.7S78.9 23.2 78.5 50.2v-.7C78.5 22.1 100.7 0 128 0s49.5 22.1 49.5 49.5zM87.1 78.8C73 90.5 64 108.2 64 128v.7c.2-19.8 9.5-37.5 23.8-49l.7-.5-.7-.9zm81.8 0-.6-.5-.7.9.7.6c14.3 11.6 23.6 29.2 23.8 49v-.8c-.1-19.8-9.1-37.5-23.2-49.2z"/>
  <path fill="#263238" fill-opacity=".2" d="M192 127.3v.7c0 35.3-28.7 64-64 64s-64-28.7-64-64v-.7c.4 35 28.9 63.3 64 63.3s63.6-28.3 64-63.3zM78.5 48.7v.7c0 11.1 3.7 21.4 9.9 29.7.2-.1.5-.3.7-.5-6.5-8.2-10.4-18.6-10.6-29.9zm99 0c-.2 11.3-4.1 21.6-10.6 29.9.3.2.5.4.7.5 6.2-8.1 9.9-18.5 9.9-29.7z"/>
  <path fill="url(#a)" d="M256 23.3 232.7 64l-6.6 11.6h-15.8l-20 37.9c1.1 4.7 1.6 9.5 1.6 14.5 0 27.1-16.9 50.3-40.7 59.6-.7.3-1.5.6-2.2.8l-21 38.5-21.2-38.5c-.7-.2-1.5-.5-2.2-.8C80.9 178.2 64 155.1 64 128c0-5 .6-9.8 1.6-14.5L45.7 75.6H30L23.3 64 0 23.3h66.9l10.9 21.6.6.4c0-.1.2-.2.2-.4C80.9 19.7 102.1 0 127.9 0c25.8 0 47 19.7 49.3 44.9 0 .1-.3.2-.3.3l-.1-.3 12.3-21.7H256z" style="fill:url(#a)"/>
</svg>

<?xml version="1.0" encoding="UTF-8"?>
<svg width="256px" height="227px" viewBox="0 0 256 227" version="1.1" xmlns="http://www.w3.org/2000/svg" xmlns:xlink="http://www.w3.org/1999/xlink" preserveAspectRatio="xMidYMid">
    <defs>
        <radialGradient cx="1.27839844%" cy="11.378669%" fx="1.27839844%" fy="11.378669%" r="105.363633%" gradientTransform="translate(0.012784,0.113787),scale(0.886328,1.000000),translate(-0.012784,-0.113787)" id="radialGradient-1">
            <stop stop-color="#FFFFFF" stop-opacity="0.1" offset="0%"></stop>
            <stop stop-color="#FFFFFF" stop-opacity="0" offset="100%"></stop>
        </radialGradient>
    </defs>
		<g>
				<path d="M214.5,62.5 L208.3,75.6 L226,75.6 L226.9,74.1 L233.4,62.5 L214.3,62.5 L214.5,62.5 Z M41.2,62.5 L22.5,62.5 L30,75.6 L47.5,75.6 L41.2,62.5 Z" fill="#9E9E9E"></path>
				<polyline fill="#424242" points="256 23.3 232.7 64 216.4 64 190.3 113.5 128 226.9 65.6 113.5 39.6 64 23.3 64 0 23.3 66.9 23.3 77.8 44.9 113.3 109.6 127.8 136.2 141.8 109.6 176.7 44.9 189 23.2"></polyline>
				<path d="M67.7,24.7 L0.8,24.7 L0,23.3 L66.9,23.3 L67.7,24.7 Z M189.1,23.3 L188.3,24.8 L255.2,24.8 L256,23.3 L189.1,23.3 Z" fill-opacity="0.2" fill="#FFFFFF"></path>
				<polyline fill-opacity="0.2" fill="#263238" points="227 74.2 226.2 75.7 210.4 75.7 190.4 113.6 128 226.9 65.6 113.5 45.7 75.6 29.9 75.6 29.1 74.1 45.7 74.1 46.5 75.6 65.6 112 128 225.5 190.4 112.1 209.6 75.7 210.4 74.2"></polyline>
				<path d="M152.7,128 C152.7,141.7 141.6,152.7 128,152.7 C114.4,152.7 103.3,141.6 103.3,128 C103.3,114.4 114.4,103.3 128,103.3 C141.7,103.3 152.7,114.3 152.7,128 Z M149.8,52.4 C149.8,64.4 140,74.2 128,74.2 C116,74.2 106.2,64.4 106.2,52.4 C106.2,40.4 116,30.5 128,30.5 C140,30.5 149.8,40.3 149.8,52.4 Z" fill="#FFFFFF"></path>
				<path d="M190.4,113.5 C187.1,99.4 179.2,87 168.3,78.2 C174.1,70.1 177.5,60.2 177.5,49.4 C177.5,47.9 177.4,46.4 177.3,44.9 C175,19.7 153.8,0 128,0 C102.2,0 81,19.7 78.8,44.9 C78.7,46.4 78.6,47.9 78.6,49.5 C78.6,60.2 82,70.2 87.8,78.3 C76.9,87.1 68.9,99.4 65.7,113.6 C64.6,118.2 64,123 64,128 C64,155.1 80.9,178.3 104.7,187.6 C111.9,190.4 119.8,192 128,192 C136.2,192 144.1,190.4 151.3,187.6 C175.1,178.3 192,155.1 192,128 C192,123 191.4,118.2 190.4,113.5 Z M128,32 C139.2,32 148.4,41.1 148.4,52.4 C148.4,63.7 139.3,72.8 128,72.8 C116.8,72.8 107.6,63.7 107.6,52.4 C107.6,41.1 116.8,32 128,32 Z M128,151.3 C115.2,151.3 104.7,140.9 104.7,128 C104.7,120.5 108.2,113.9 113.7,109.6 C117.6,106.5 122.6,104.7 128,104.7 C133.4,104.7 138.4,106.5 142.3,109.6 C147.8,113.9 151.3,120.5 151.3,128 C151.3,140.9 140.9,151.3 128,151.3 Z" fill="#4285F4"></path>
				<path d="M177.5,49.5 L177.5,50.2 C177,23.2 155.1,1.5 128,1.5 C100.9,1.5 78.9,23.2 78.5,50.2 L78.5,49.5 C78.5,22.1 100.7,0 128,0 C155.3,0 177.5,22.1 177.5,49.5 Z M87.1,78.8 C73,90.5 64,108.2 64,128 L64,128.7 C64.2,108.9 73.5,91.2 87.8,79.7 L88.5,79.2 L87.8,78.3 L87.1,78.8 Z M168.9,78.8 L168.3,78.3 L167.6,79.2 L168.3,79.8 C182.6,91.4 191.9,109 192.1,128.8 L192.1,128 C192,108.2 183,90.5 168.9,78.8 Z" fill-opacity="0.2" fill="#FFFFFF"></path>
				<path d="M192,127.3 L192,128 C192,163.3 163.3,192 128,192 C92.7,192 64,163.3 64,128 L64,127.3 C64.4,162.3 92.9,190.6 128,190.6 C163.1,190.6 191.6,162.3 192,127.3 Z M78.5,48.7 L78.5,49.4 C78.5,60.5 82.2,70.8 88.4,79.1 C88.6,79 88.9,78.8 89.1,78.6 C82.6,70.4 78.7,60 78.5,48.7 Z M177.5,48.7 C177.3,60 173.4,70.3 166.9,78.6 C167.2,78.8 167.4,79 167.6,79.1 C173.8,71 177.5,60.6 177.5,49.4 L177.5,48.7 Z" fill-opacity="0.2" fill="#263238"></path>
				<path d="M256,23.3 L232.7,64 L226.1,75.6 L210.3,75.6 L190.3,113.5 C191.4,118.2 191.9,123 191.9,128 C191.9,155.1 175,178.3 151.2,187.6 C150.5,187.9 149.7,188.2 149,188.4 L128,226.9 L106.8,188.4 C106.1,188.2 105.3,187.9 104.6,187.6 C80.9,178.2 64,155.1 64,128 C64,123 64.6,118.2 65.6,113.5 L45.7,75.6 L30,75.6 L23.3,64 L0,23.3 L66.9,23.3 L77.8,44.9 L78.4,45.3 C78.4,45.2 78.6,45.1 78.6,44.9 C80.9,19.7 102.1,0 127.9,0 C153.7,0 174.9,19.7 177.2,44.9 C177.2,45 176.9,45.1 176.9,45.2 L176.8,44.9 L189.1,23.2 L256,23.2 L256,23.3 Z" fill="url(#radialGradient-1)"></path>
		</g>
</svg>
